icons/folder-open.svg

<svg width="24" height="24" viewBox="0 0 24 24" fill="none" xmlns="http://www.w3.org/2000/svg">
<path fill-rule="evenodd" clip-rule="evenodd" d="M2 4C2 3.44772 2.44772 3 3 3H10C10.2652 3 10.5196 3.10536 10.7071 3.29289L12.4142 5H20C20.5523 5 21 5.44772 21 6V8C21 8.55228 20.5523 9 20 9C19.4477 9 19 8.55228 19 8V7H12C11.7348 7 11.4804 6.89464 11.2929 6.70711L9.58579 5H4V15.8769L5.02986 11.7575C5.14115 11.3123 5.54113 11 6 11H21C21.3079 11 21.5987 11.1419 21.7882 11.3846C21.9777 11.6273 22.0448 11.9438 21.9701 12.2425L19.9701 20.2425C19.8589 20.6877 19.4589 21 19 21H3C2.44772 21 2 20.5523 2 20V4ZM5.28078 19L6.78078 13H19.7192L18.2192 19H5.28078Z" fill="black"/>
</svg>

<svg
  width="24"
  height="24"
  viewBox="0 0 24 24"
  xmlns="http://www.w3.org/2000/svg"
>
  <path
    fill-rule="evenodd"
    clip-rule="evenodd"
    d="M2 4a1 1 0 0 1 1-1h7a1 1 0 0 1 .707.293L12.414 5H20a1 1 0 0 1 1 1v2a1 1 0 1 1-2 0V7h-7a1 1 0 0 1-.707-.293L9.586 5H4v10.877l1.03-4.12A1 1 0 0 1 6 11h15a1 1 0 0 1 .97 1.242l-2 8A1 1 0 0 1 19 21H3a1 1 0 0 1-1-1V4zm3.28 15l1.5-6h12.94l-1.5 6H5.28z"
  />
</svg>
